!!!!SEGMENT: pl-wtm--r-1549--006_stefani-jozef--msza-no-8-agnus-dei.krn
!!!id: 18xx:1807
!!!COM: Stefani, Józef
!!!COM-rism: pe30024097
!!!CDT: 1800/04/16-1876/03/19
!!!CNT: Polish
!!!OTL: Msza No 8 – Agnus Dei
!!!PDT:
!!!SMS-siglum: PL-Wtm
!!!SMS-shelfmark: R 1549
!!!NIFC-rismID: 1001115167
!!!URL-scan: http://repozytorium.nifc.pl/skany/pl-wtm-nut--r1549
!!!ONB-nifc: UWAGA: części Mszy: 1. Kyrie, 2. Gloria, 3. Credo, 4. Sanctus, 5. Benedictus Terzetto, 6. Agnus Dei. W źródle Benedictus wpisany po Agnus Dei
!!!SMS-variant:
!!!SMS-altvar:
**kern	**dynam	**kern	**dynam	**kern	**dynam	**kern	**dynam	**kern	**text	**text	**kern	**text	**dynam	**kern	**text	**dynam
*part7	*part7	*part6	*part6	*part5	*part5	*part4	*part4	*part3	*part3	*part3	*part2	*part2	*part2	*part1	*part1	*part1
*staff7	*	*staff6	*	*staff5	*	*staff4	*	*staff3	*staff3	*staff3	*staff2	*staff2	*	*staff1	*staff1	*
*I"Basſo	*	*I"Viole	*	*I"Violini	*	*I"Violini	*	*I"Voce	*	*	*	*	*	*	*	*
*I'b	*	*I'vla	*	*I'vn	*	*I'vn	*	*I'V	*	*	*	*	*	*	*	*
*clefF4	*	*clefC3	*	*clefG2	*	*clefG2	*	*clefG2	*	*	*clefG2	*	*	*clefG2	*	*
*k[f#]	*	*k[f#]	*	*k[f#]	*	*k[f#]	*	*k[f#]	*	*	*k[f#]	*	*	*k[f#]	*	*
*G:	*	*G:	*	*G:	*	*G:	*	*G:	*	*	*G:	*	*	*G:	*	*
*M4/4	*	*M4/4	*	*M4/4	*	*M4/4	*	*M4/4	*	*	*M4/4	*	*	*M4/4	*	*
*met(c)	*	*met(c)	*	*met(c)	*	*met(c)	*	*met(c)	*	*	*met(c)	*	*	*met(c)	*	*
*>[A,B,B1,B,B1,B,B1,B,B2]	*	*>[A,B,B1,B,B1,B,B1,B,B2]	*	*>[A,B,B1,B,B1,B,B1,B,B2]	*	*>[A,B,B1,B,B1,B,B1,B,B2]	*	*>[A,B,B1,B,B1,B,B1,B,B2]	*	*	*>[A,B,B1,B,B1,B,B1,B,B2]	*	*	*>[A,B,B1,B,B1,B,B1,B,B2]	*	*
*>A	*	*>A	*	*>A	*	*>A	*	*>A	*	*	*>A	*	*	*>A	*	*
*	*	*	*	*	*	*^	*	*	*	*	*	*	*	*	*	*
!!LO:TX:t=P:problem:all\right:global
!	!	!	!	!	!	!	!	!	!	!	!	!	!	!	!LO:TX:a:B:t=Moderato	!	!
!	!	!	!	!	!	!	!	!	!	!	!	!	!	!	!LO:TX:a:B:t=Agnus Dei.	!	!
(4E-X^<\	sf	(4e-X\	sf	4G/ 4g	sf	(4cc#X/	4cc#\	sf	4r	.	.	4r	.	.	4r	.	.
*	*	*	*	*	*	*v	*v	*	*	*	*	*	*	*	*	*	*
=1	=1	=1	=1	=1	=1	=1	=1	=1	=1	=1	=1	=1	=1	=1	=1	=1
!	!	!	!	!	!	!LO:TUP:a:problem:brak klamry	!	!	!	!	!	!	!	!	!	!
4D\)	.	4d\)	.	4A/ 4f#X	.	(6dd\)	.	1r	.	.	1r	.	.	1r	.	.
.	.	.	.	.	.	6ee\	.	.	.	.	.	.	.	.	.	.
4r	.	4r	.	4r	.	.	.	.	.	.	.	.	.	.	.	.
.	.	.	.	.	.	6dd\	.	.	.	.	.	.	.	.	.	.
!	!	!	!	!	!	!LO:TUP:a:problem:brak klamry	!	!	!	!	!	!	!	!	!	!
2r	.	2r	.	2r	.	6cc\	.	.	.	.	.	.	.	.	.	.
.	.	.	.	.	.	6a\	.	.	.	.	.	.	.	.	.	.
.	.	.	.	.	.	6dd\)	.	.	.	.	.	.	.	.	.	.
=2!|:	=2!|:	=2!|:	=2!|:	=2!|:	=2!|:	=2!|:	=2!|:	=2!|:	=2!|:	=2!|:	=2!|:	=2!|:	=2!|:	=2!|:	=2!|:	=2!|:
*>B	*	*>B	*	*>B	*	*>B	*	*>B	*	*	*>B	*	*	*>B	*	*
*	*	*	*	*2\right	*	*2\right	*	*	*	*	*	*	*	*2\right	*	*
!LO:TX:a:i:t=Vcelli	!	!	!	!	!	!LO:TX:a:i:t=dolce	!	!	!	!	!	!	!	!LO:TX:a:i:t=dolce	!	!
(2GG/	.	(2G/ 2g	.	(2b\	.	(2dd\	.	2G/	3.) Nie-	4. Bo-	2b/	2.) Pa-	.	2dd\	1.) Dzie-	.
4E\	.	4e\	.	4g/	.	4b\	.	4e/	-chay	-ży	4g/	-nem	.	4b\	-ci	.
4E-X\)	.	4e-X\)	.	4a/)	.	4cc\)	.	4e-X/	w_Chri-	ba-	4a/	ty	.	4cc\	nie-	.
=3	=3	=3	=3	=3	=3	=3	=3	=3	=3	=3	=3	=3	=3	=3	=3	=3
(8qD/	.	.	.	.	.	.	.	.	.	.	.	.	.	.	.	.
*^	*	*	*	*	*	*	*	*	*	*	*	*	*	*	*	*
8d\L	2.ryy	.	(8d/L	.	(4f#/	.	(4a\	.	(8d/L	stu-	-ran-	(4f#/	na-	.	(4a\	-go-	.
8c\	.	.	8c/	.	.	.	.	.	8c/	.	.	.	.	.	.	.	.
8B\	.	.	8B/	.	8g/L	.	8b\L	.	8B/	.	.	8g/L	.	.	8b\L	.	.
8A\J	.	.	8A/J	.	8a/J	.	8cc\J	.	8A/J)	.	.	8a/J)	.	.	8cc\J)	.	.
!LO:TX:b:i:t=Ctb	!	!	!	!	!	!	!	!	!	!	!	!	!	!	!	!	!
4G/)	.	.	4G/)	.	4b/)	.	4dd'\)	.	4G/	-sa	-ku	4b/	-szym	.	4dd\	-dne	.
4G/	4G\	.	4g\	.	4b'/	.	4dd'\	.	4g/	i-	coś	4b/	i	.	4dd\	łask	.
=4	=4	=4	=4	=4	=4	=4	=4	=4	=4	=4	=4	=4	=4	=4	=4	=4	=4
*	*2\right	*	*2\right	*	*	*	*	*	*	*	*	*2\right	*	*	*	*	*
(2F#/	2F#\	sf	(2f#\	>	(2cc\	>	(2ee\	>	2f#/	dzie-	zma-	2cc\	-Oy-	.	2ee\	-wiel-	.
4G/)	4G\	.	4g\)	]	4b\)	]	4dd\)	]	(8g/L	-my	-zał	4b\	-cem	.	4dd\	-kiej	.
.	.	.	.	.	.	.	.	.	8G/J)	.	.	.	.	.	.	.	.
4c\	4ryy	.	4e|>\	.	4a|>\	.	4cc'\	.	4c/	przy-	grzech	4a\	na	.	4cc\	o-	.
*v	*v	*	*	*	*	*	*	*	*	*	*	*	*	*	*	*	*
!!LO:LB:g=original
=5	=5	=5	=5	=5	=5	=5	=5	=5	=5	=5	=5	=5	=5	=5	=5	=5
(2d\	.	[2d\	.	(4.gS/	.	(4.bS\	.	2d/	kła-	świa-	4.gS/	wie-	.	4.bS\	-fia-	.
.	.	.	.	8a/	.	8cc\	.	.	.	.	8a/	.	.	8cc\	.	.
4D\)	.	4d\]	.	4f#/)	.	4a/)	.	4d/	-dy	-ta	4f#/	-ki	.	4a/	-ry	.
4D'\	.	4d\	.	4f#'/	.	4a'/	.	4r	.	.	4r	.	.	4r	.	.
=6	=6	=6	=6	=6	=6	=6	=6	=6	=6	=6	=6	=6	=6	=6	=6	=6
4E^<\	.	8r	.	8r	.	8r	.	2e/	Czy-	A-	2e/	Cho-	.	2g^/	a_Twe-	.
.	.	(8B'^/L	.	(8e'/L	.	(8g'^/L	.	.	.	.	.	.	.	.	.	.
4r	.	8B'/	.	8e'/	.	8g'/	.	.	.	.	.	.	.	.	.	.
.	.	8B'/J)	.	8e'/J)	.	8g'/J)	.	.	.	.	.	.	.	.	.	.
4D^<\	.	8r	.	8r	.	8r	.	2d/	-li	-by	2f#/	-ciasz	.	2a^/	-go	.
*	*	*tremolo	*	*tremolo	*	*tremolo	*	*	*	*	*	*	*	*	*	*
.	.	8d\L	.	8f#/L	.	8a^/L	.	.	.	.	.	.	.	.	.	.
4r	.	8d\	.	8f#/	.	8a/	.	.	.	.	.	.	.	.	.	.
.	.	8d\J	.	8f#/J	.	8a/J	.	.	.	.	.	.	.	.	.	.
*	*	*Xtremolo	*	*Xtremolo	*	*Xtremolo	*	*	*	*	*	*	*	*	*	*
=7	=7	=7	=7	=7	=7	=7	=7	=7	=7	=7	=7	=7	=7	=7	=7	=7
4.G\	.	8r	.	8r	.	8r	.	4.g/	w_szczę-	lud	4.g/	sła-	.	4.b\	sto-	.
.	.	8d\L	.	(8g'/L	.	8b\L	.	.	.	.	.	.	.	.	.	.
.	.	8d\	.	8g'/	.	8b\	.	.	.	.	.	.	.	.	.	.
8BB/	.	8B\J 8d	.	8g'/J)	.	8dd\J	.	8B/	-ściu,	Twój	8g/	-bi	.	8dd\	-łu	.
8E\	.	8r	.	8r	.	8r	.	4e/	czy	żył	4e/	po-	.	4g/	da-	.
8r	.	8B/	.	8e/	.	8g/	.	.	.	.	.	.	.	.	.	.
8C#X/	.	8r	.	8r	.	8r	.	4c#X/	w_nie-	bez-	4e/	-błą-	.	4a/	-ry	.
8r	.	8A/	.	8e/	.	8a/	.	.	.	.	.	.	.	.	.	.
=8	=8	=8	=8	=8	=8	=8	=8	=8	=8	=8	=8	=8	=8	=8	=8	=8
4D\	.	8r	.	8r	.	8r	.	2d/	do-	-pie-	2g/	dzie-	.	2b/	-bio-	.
*	*	*tremolo	*	*tremolo	*	*tremolo	*	*	*	*	*	*	*	*	*	*
.	.	8d\L	.	8g/L	.	8b/L	.	.	.	.	.	.	.	.	.	.
4r	.	8d\	.	8g/	.	8b/	.	.	.	.	.	.	.	.	.	.
.	.	8d\J	.	8g/J	.	8b/J	.	.	.	.	.	.	.	.	.	.
4D\	.	8r	.	8r	.	8r	.	2d/	-li	-czny	2f#/	-my	.	2a/	-rą	.
.	.	8d\L	.	8f#/L	.	8a/L	.	.	.	.	.	.	.	.	.	.
4r	.	8d\	.	8f#/	.	8a/	.	.	.	.	.	.	.	.	.	.
.	.	8d\J	.	8f#/J	.	8a/J	.	.	.	.	.	.	.	.	.	.
=9	=9	=9	=9	=9	=9	=9	=9	=9	=9	=9	=9	=9	=9	=9	=9	=9
!	!	!	!	!	!	!	!	!	!	!	!	!	!	!	!	!LO:HP:a
4D#X\	sf	8r	.	8r	.	8r	.	2d#X/	On	U-	2f#/	Prze-	.	2b/	Rę-	>
.	.	8B/L	sf	8f#/L	sf	8b/L	sf	.	.	.	.	.	.	.	.	.
4r	.	8B/	.	8f#/	.	8b/	.	.	.	.	.	.	.	.	.	.
.	.	8B/J	.	8f#/J	.	8b/J	.	.	.	.	.	.	.	.	.	.
*	*	*Xtremolo	*	*Xtremolo	*	*Xtremolo	*	*	*	*	*	*	*	*	*	*
8D#\	.	8r	.	8r	.	8r	.	4d#/	nam	-twierdz	4f#/	-cie	.	4b/	-ce	]
8r	.	8B/	.	8f#/	.	8b/	.	.	.	.	.	.	.	.	.	.
8D#\	.	8r	.	8r	.	8r	.	4d#/	po	w_nas	4f#/	z_pod	.	4a/	do	.
8r	.	8B/	.	8f#/	.	8a/	.	.	.	.	.	.	.	.	.	.
!!LO:PB:g=original
=10	=10	=10	=10	=10	=10	=10	=10	=10	=10	=10	=10	=10	=10	=10	=10	=10
4E\	.	8r	.	8r	.	8r	.	2e/	ka-	wia-	2e/	-Two-	.	2g/	Oj-	.
*	*	*tremolo	*	*tremolo	*	*tremolo	*	*	*	*	*	*	*	*	*	*
.	.	8B/L	.	8e/L	.	8g/L	.	.	.	.	.	.	.	.	.	.
4r	.	8B/	.	8e/	.	8g/	.	.	.	.	.	.	.	.	.	.
.	.	8B/J	.	8e/J	.	8g/J	.	.	.	.	.	.	.	.	.	.
8E\	.	8r	.	8r	.	8r	.	4e/	-zał	-rę	4e/	-ièj	.	4g/	-ca	.
8r	.	8B/	.	8e/	.	8g/	.	.	.	.	.	.	.	.	.	.
8E\	.	8r	.	8r	.	8r	.	4e/	i	i	4e/	niè	.	4g/	po-	.
8r	.	8B/	.	8e/	.	8g/	.	.	.	.	.	.	.	.	.	.
=11	=11	=11	=11	=11	=11	=11	=11	=11	=11	=11	=11	=11	=11	=11	=11	=11
!	!	!	!	!	!	!	!	!	!	!	!	!	!	!	!	!LO:DY:a
4AA/	f	8r	.	8r	.	8r	.	2A/	-wzo-	mi-	2e/	-wyi-	.	2cc\	dno-	f
.	.	8A\L 8e	f	8a/L	.	8cc\L	f	.	.	.	.	.	.	.	.	.
4r	.	8A\ 8e	.	8a/	.	8cc\	.	.	.	.	.	.	.	.	.	.
.	.	8A\J 8e	.	8a/J	.	8cc\J	.	.	.	.	.	.	.	.	.	.
4D\	.	8r	.	8r	.	8r	.	4d/	-ry	-łość	4f#/	-dzièm	.	4a/	-szą	.
.	.	8d\L	.	8f#/L	.	8a\L	.	.	.	.	.	.	.	.	.	.
4r	.	8d\	.	8f#/	.	8a\	.	4d/	i	da	4f#/	o-	.	4a/	po-	.
.	.	8d\J	.	8f#/J	.	8a\J	.	.	.	.	.	.	.	.	.	.
=12	=12	=12	=12	=12	=12	=12	=12	=12	=12	=12	=12	=12	=12	=12	=12	=12
!LO:TX:t=P:problem:mixed beam	!	!	!	!	!	!	!	!	!	!	!	!	!	!	!	!
8GG/L	.	8r	.	8r	.	8r	.	2G/	śla-	bra-	2g/	pie-	.	2b\	da-	.
8G\	.	8d\L	.	8g/L	.	8b\L	.	.	.	.	.	.	.	.	.	.
8D\	.	8d\	.	8g/	.	8b\	.	.	.	.	.	.	.	.	.	.
8BB\J	.	8d\J	.	8g/J	.	8b\J	.	.	.	.	.	.	.	.	.	.
*	*	*Xtremolo	*	*Xtremolo	*	*Xtremolo	*	*	*	*	*	*	*	*	*	*
8GG/	.	8d\	.	8g/	.	8b\	.	4G/	-dy	-ta	4g/	-ki	.	4b\	-ry	.
8r	.	8r	.	8r	.	(8g/L	.	.	.	.	.	.	.	.	.	.
4r	.	4r	.	4r	.	8b/	.	4r	.	.	4r	.	.	4r	.	.
.	.	.	.	.	.	8cc/J)	.	.	.	.	.	.	.	.	.	.
=13	=13	=13	=13	=13	=13	=13	=13	=13	=13	=13	=13	=13	=13	=13	=13	=13
!	!	!	!	!	!	!	!	!	!	!	!	!	!	!	!	!LO:DY:a
4BB/	p	4d'\	p	4g/	.	4dd\	p	2B/	Jak	Daj	2g/	-Gdy	.	2dd\	I	p
4r	.	4d'\	.	4g/	.	4dd\	.	.	.	.	.	.	.	.	.	.
4B\	.	4r	.	4r	.	4r	.	2B/	żyć	nam	2g/	Cię	.	2g/	z_uf-	.
4r	.	4d\	.	4g/	.	4g/	.	.	.	.	.	.	.	.	.	.
=14	=14	=14	=14	=14	=14	=14	=14	=14	=14	=14	=14	=14	=14	=14	=14	=14
2A\	.	(4e\	.	(4e/	.	2cc\	.	2A/	we-	po-	(4e/	po-	.	2cc\	no-	.
.	.	4d\)	.	4f#/	.	.	.	.	.	.	4f#/)	.	.	.	.	.
2G\	.	2d\	.	2g/)	.	2b\	.	2G/	-dług	-kój	2g/	-śród	.	2b\	-ścią	.
!!LO:LB:g=original
=15	=15	=15	=15	=15	=15	=15	=15	=15	=15	=15	=15	=15	=15	=15	=15	=15
2.D\	.	2.d\	.	(4g/	.	2.a/	.	2.d/	-Oy-	po-	(4g/	-nas	.	2.a/	i	.
.	.	.	.	8f#/L	.	.	.	.	.	.	8f#/L	.	.	.	.	.
.	.	.	.	8e/J	.	.	.	.	.	.	8e/J)	.	.	.	.	.
.	.	.	.	4f#/)	.	.	.	.	.	.	4f#/	.	.	.	.	.
4D\	.	4d\	.	4f#'/	.	4dd|>\	.	4d/	-ca	-kój	4f#/	czu-	.	4dd\	z_po-	.
=16	=16	=16	=16	=16	=16	=16	=16	=16	=16	=16	=16	=16	=16	=16	=16	=16
(4E\	.	(4c\	.	(4g/	.	(2cc\	.	(4e/	wo-	wiecz-	(4g/	ie-	.	2cc\	ko-	.
4F#\	.	4d\	.	4a/	.	.	.	4f#/)	.	.	4a/)	.	.	.	.	.
2G\)	.	2d\)	.	2g/)	.	2b\)	.	2g/	-li	-ny	2g/	-my	.	2b\	-rą	.
=17	=17	=17	=17	=17	=17	=17	=17	=17	=17	=17	=17	=17	=17	=17	=17	=17
!	!	!	!	!	!	!	!	!	!	!	!	!	!	!	!	!LO:HP:a
4BB/	.	4d\	.	4g/	.	4dd\	.	2B/	Jak	Daj	2g/	-Gdy	.	2dd\	I	<
4r	.	4d\	.	4g'/	.	4dd'\	<	.	.	.	.	.	.	.	.	.
4B\	.	4r	.	4r	.	4r	.	2B/	żyć	nam	2g/	Cię	.	2dd#X\	z_uf-	.
4r	.	4d#X\	.	4g/	.	4dd#X'\	[[	.	.	.	.	.	.	.	.	.
=18	=18	=18	=18	=18	=18	=18	=18	=18	=18	=18	=18	=18	=18	=18	=18	=18
*	*	*^	*	*	*	*	*	*	*	*	*	*	*	*	*	*
!	!	!	!	!	!	!	!	!	!	!	!	!	!	!	!	!	!LO:DY:a
4c\	.	4rb	4rD	.	4r	.	4r	.	2c/	-we-	po-	(4..g/	-po-	.	(4..ee\	no-	[ f
4C'/	f	4e/	4c\	.	4g/	f <	4cc'\ 4ee	f	.	.	.	.	.	.	.	.	.
.	.	.	.	.	.	.	.	.	.	.	.	16e/)	.	.	16gg\)	.	.
4C#X'/	.	4e/	4c#X\	.	4g/ 4ee	.	4b-X'\ 4gg	.	4c#X/	-dług	-kój	4e/	-śród	.	4gg\	-ścią	.
!	!	!	!	!	!	!	!	!	!	!	!	!	!	!	!	!	!LO:DY:a
4r	.	4rb	4rD	.	4r	[	4r	.	8.c#/	Oy-	po-	8.e/	nas	.	8.g/	i	p
.	.	.	.	.	.	.	.	.	16c#/	-ca	-kój	16e/	czu-	.	16a/	z_po-	.
*	*	*v	*v	*	*	*	*	*	*	*	*	*	*	*	*	*	*
=19	=19	=19	=19	=19	=19	=19	=19	=19	=19	=19	=19	=19	=19	=19	=19	=19
4D\	p	4d\	p	4g/	p	4b\	p	(>2d/	-wo-	wie-	(2g/	-ie-	.	(>2b/	ko-	.
4r	.	4r	.	4r	.	4r	.	.	.	.	.	.	.	.	.	.
.	.	.	.	.	.	.	.	.	.	.	.	.	.	(8qb/	.	.
4D\	.	4cn\ 4d	.	4f#/	.	4a/	.	4.cn/	.	.	4.f#/	.	.	4.a/)	.	.
4r	.	4ryy	.	4ryy	.	4r	.	.	.	.	.	.	.	.	.	.
.	.	.	.	.	.	.	.	8B/	.	.	8g/)	.	.	8g/)	.	.
=20	=20	=20	=20	=20	=20	=20	=20	=20	=20	=20	=20	=20	=20	=20	=20	=20
!LO:TX:t=1. 2. 3.	!	!	!	!	!	!LO:TX:t=1. 2. 3.	!	!	!	!	!	!	!	!LO:TX:t=1. 2. 3.	!	!
*>B1	*	*>B1	*	*>B1	*	*>B1	*	*>B1	*	*	*>B1	*	*	*>B1	*	*
4GG/	.	4B\ 4d	.	4g/	.	4g/	.	4B/)	li	-czny	4g/	my	.	4g/	-rą	.
4r	.	4r	.	4r	.	4r	.	4r	.	.	4r	.	.	4r	.	.
!	!	!	!LO:DY:a	!	!	!	!	!	!	!	!	!	!	!	!	!
(4E\	f	[2A/	f	(2c#X^>/	.	(2g/	f	2r	.	.	2r	.	.	2r	.	.
4E-X^<\	.	.	.	.	.	.	.	.	.	.	.	.	.	.	.	.
=21	=21	=21	=21	=21	=21	=21	=21	=21	=21	=21	=21	=21	=21	=21	=21	=21
!	!	!	!	!	!	!LO:TUP:a:problem:brak klamry	!	!	!	!	!	!	!	!	!	!
4D\)	.	4A/]	.	4d/)	.	(6f#/)	.	1r	.	.	1r	.	.	1r	.	.
.	.	.	.	.	.	6ee\	.	.	.	.	.	.	.	.	.	.
4r	.	4r	.	4r	.	.	.	.	.	.	.	.	.	.	.	.
.	.	.	.	.	.	6dd\	.	.	.	.	.	.	.	.	.	.
!	!	!	!	!	!	!LO:TUP:a:problem:brak klamry	!	!	!	!	!	!	!	!	!	!
2r	.	2r	.	2r	.	6cc\	.	.	.	.	.	.	.	.	.	.
.	.	.	.	.	.	6a\	.	.	.	.	.	.	.	.	.	.
.	.	.	.	.	.	6dd\)	.	.	.	.	.	.	.	.	.	.
!!LO:PB:g=original
=22:|!	=22:|!	=22:|!	=22:|!	=22:|!	=22:|!	=22:|!	=22:|!	=22:|!	=22:|!	=22:|!	=22:|!	=22:|!	=22:|!	=22:|!	=22:|!	=22:|!
!LO:TX:t=4.	!	!	!	!	!	!LO:TX:t=4.	!	!	!	!	!	!	!	!LO:TX:t=4.	!	!
*>B2	*	*>B2	*	*>B2	*	*>B2	*	*>B2	*	*	*>B2	*	*	*>B2	*	*
4GG/ 4G	.	4B\ 4d	.	4g/	.	4g/	.	4B/	-czny	.	4g/	.	.	4g/	czny	.
4r	.	4r	.	4r	.	4r	.	4r	.	.	4r	.	.	4r	.	.
*	*	*tremolo	*	*tremolo	*	*tremolo	*	*	*	*	*	*	*	*	*	*
2C/	.	16c\LL	.	16G/LL 16e	.	16g/LL	.	2c/	a-	.	2e/	.	.	2g/	A-	.
.	.	16c\	.	16G/ 16e	.	16g/	.	.	.	.	.	.	.	.	.	.
.	.	16c\	.	16G/ 16e	.	16g/	.	.	.	.	.	.	.	.	.	.
.	.	16c\	.	16G/ 16e	.	16g/	.	.	.	.	.	.	.	.	.	.
.	.	16c\	.	16G/ 16e	.	16g/	.	.	.	.	.	.	.	.	.	.
.	.	16c\	.	16G/ 16e	.	16g/	.	.	.	.	.	.	.	.	.	.
.	.	16c\	.	16G/ 16e	.	16g/	.	.	.	.	.	.	.	.	.	.
.	.	16c\JJ	.	16G/JJ 16e	.	16g/JJ	.	.	.	.	.	.	.	.	.	.
*	*	*Xtremolo	*	*Xtremolo	*	*Xtremolo	*	*	*	*	*	*	*	*	*	*
=23	=23	=23	=23	=23	=23	=23	=23	=23	=23	=23	=23	=23	=23	=23	=23	=23
4GG/	.	4B\	.	4G/ 4d	.	4g/	.	4B/	-men	.	4d/	.	.	4g/	-men	.
4r	.	4r	.	4r	.	4r	.	4r	.	.	4r	.	.	4r	.	.
*	*	*tremolo	*	*tremolo	*	*tremolo	*	*	*	*	*	*	*	*	*	*
!	!	!	!	!	!	!	!	!	!	!	!	!	!	!	!	!LO:DY:a
4C\	<	16c\LL	.	16e/LL	<	16g/LL	<	(4c/	a-	.	(4e/	.	.	(4g/	a-	<
.	.	16c\	.	16e/	.	16g/	.	.	.	.	.	.	.	.	.	.
.	.	16c\	.	16e/	.	16g/	.	.	.	.	.	.	.	.	.	.
.	.	16c\JJ	.	16e/JJ	.	16g/JJ	.	.	.	.	.	.	.	.	.	.
8E\L	.	16e\LL	.	16g/LL	.	16cc\LL	.	8e/L	.	.	8g/L	.	.	8cc\L	.	.
.	.	16e\	.	16g/	.	16cc\	.	.	.	.	.	.	.	.	.	.
8C\J	[	16c\	.	16cc/	.	16ee\	.	8c/J)	.	.	8cc/J)	.	.	8ee\J	.	[
.	.	16c\JJ	.	16cc/JJ	[	16ee\JJ	[	.	.	.	.	.	.	.	.	.
*	*	*Xtremolo	*	*Xtremolo	*	*Xtremolo	*	*	*	*	*	*	*	*	*	*
=24	=24	=24	=24	=24	=24	=24	=24	=24	=24	=24	=24	=24	=24	=24	=24	=24
!	!	!	!	!	!	!	!	!	!	!	!	!	!	!	!	!LO:DY:a
!	!	!	!	!	!	!	!	!	!	!	!	!	!	!	!	!LO:DY:a
4GG/	f	4G/ 4d	f	4b\	f	4gg\	f	1G; 1g	men.	.	1b;	.	f	1gg;)	-men.	f
8.r	.	8.r	.	8.r	.	8.r	.	.	.	.	.	.	.	.	.	.
16GG/	.	16G\ 16d	.	16B/ 16g	.	16B/ 16g	.	.	.	.	.	.	.	.	.	.
2GG;/	.	2G;\ 2d	.	2B;/ 2g	.	2B;/ 2g	.	.	.	.	.	.	.	.	.	.
==	==	==	==	==	==	==	==	==	==	==	==	==	==	==	==	==
*-	*-	*-	*-	*-	*-	*-	*-	*-	*-	*-	*-	*-	*-	*-	*-	*-
!!!system-decoration: [(s1,s2,s3)][(s4,s5,s6,s7)]
!!!RDF**kern: < = below
!!!RDF**kern: > = above
!!!RDF**kern: | = vertical stroke
!!!ENC: Marta Chmielewska
!!!END: 2021-04-27
!!!ENC: Mateusz Solarz
!!!END: 2021-04-12
